icons/1_Primary/Qantas.svg

<svg width="1024" height="1024" fill="none" xmlns="http://www.w3.org/2000/svg"><g clip-path="url(#a)"><path d="M512 1024c282.77 0 512-229.23 512-512S794.77 0 512 0 0 229.23 0 512s229.23 512 512 512Z" fill="#FF837D"/><path d="M494.89 358.52a235.72 235.72 0 0 0-164.89-70h-69l5.18 13.53c5.92 15.44 12.55 27.89 19.86 38.14a133.592 133.592 0 0 0 26.92 27l.2.19c48.18 34.07 115.84 27 198.43 102.38l.67 1.17c5 4.58 9.43 6.26 13 6.19h.82a8.778 8.778 0 0 0 7.238-4.717 8.77 8.77 0 0 0-.318-8.633 19 19 0 0 1-3.84-12.53 155.861 155.861 0 0 1 60.81 32.24l-1.5 3c-2.89 5.79-14.54 8.78-28.69 11.61-10.9 2.21-23.35 4.3-34.46 7.6v-.11c-16.75 4.86-30.34 12.29-30.74 26.5a22.883 22.883 0 0 0 14.2 21.72l16.71 6.68A408.294 408.294 0 0 1 668.8 657.9a2.171 2.171 0 0 1 0 3c-.49.143-1.01.143-1.5 0a1.507 1.507 0 0 1-1.17 0 407.813 407.813 0 0 0-177.75-82.36 426.132 426.132 0 0 0-14.23-2.5 10.857 10.857 0 0 1-9.19-9.52c-12.06-112.14-116.62-126.2-166.81-191a127.584 127.584 0 0 1-9.27-13.68l125 327.61H825L494.89 358.52Z" fill="#fff"/></g><defs><clipPath id="a"><path fill="#fff" d="M0 0h1024v1024H0z"/></clipPath></defs></svg>

<svg width="1024" height="1024" viewBox="0 0 1024 1024" fill="none" xmlns="http://www.w3.org/2000/svg">
<g clip-path="url(#clip0_2_3249)">
<path d="M512 1024C794.77 1024 1024 794.77 1024 512C1024 229.23 794.77 0 512 0C229.23 0 0 229.23 0 512C0 794.77 229.23 1024 512 1024Z" fill="#FF837D"/>
<path d="M494.89 358.52C451.28 314.398 392.033 289.246 330 288.52H261L266.18 302.05C272.1 317.49 278.73 329.94 286.04 340.19C293.676 350.431 302.742 359.523 312.96 367.19L313.16 367.38C361.34 401.45 429 394.38 511.59 469.76L512.26 470.93C517.26 475.51 521.69 477.19 525.26 477.12H526.08C527.591 477.025 529.052 476.541 530.32 475.715C531.588 474.888 532.621 473.747 533.318 472.403C534.014 471.059 534.351 469.558 534.296 468.045C534.24 466.532 533.794 465.059 533 463.77C530.275 460.181 528.913 455.74 529.16 451.24C551.579 457.321 572.356 468.336 589.97 483.48L588.47 486.48C585.58 492.27 573.93 495.26 559.78 498.09C548.88 500.3 536.43 502.39 525.32 505.69V505.58C508.57 510.44 494.98 517.87 494.58 532.08C494.47 536.712 495.769 541.269 498.305 545.147C500.84 549.025 504.493 552.042 508.78 553.8L525.49 560.48C579.68 582.325 628.551 615.547 668.8 657.9C669.186 658.304 669.402 658.841 669.402 659.4C669.402 659.959 669.186 660.496 668.8 660.9C668.31 661.043 667.79 661.043 667.3 660.9C667.115 660.978 666.916 661.019 666.715 661.019C666.514 661.019 666.315 660.978 666.13 660.9C614.452 619.412 553.442 591.143 488.38 578.54C483.653 577.627 478.91 576.793 474.15 576.04C471.783 575.687 469.6 574.563 467.938 572.841C466.276 571.12 465.229 568.898 464.96 566.52C452.9 454.38 348.34 440.32 298.15 375.52C294.768 371.165 291.671 366.596 288.88 361.84L413.88 689.45H825L494.89 358.52Z" fill="white"/>
</g>
<defs>
<clipPath id="clip0_2_3249">
<rect width="1024" height="1024" fill="white"/>
</clipPath>
</defs>
</svg>
